images/3232829.svg

<?xml version="1.0" encoding="UTF-8"?>
<svg xmlns="http://www.w3.org/2000/svg" xmlns:xlink="http://www.w3.org/1999/xlink" width="300pt" height="300pt" viewBox="0 0 300 300" version="1.1">
<defs>
<g>
<symbol overflow="visible" id="glyph0-0">
<path style="stroke:none;" d="M 0.546875 1.9375 L 0.546875 -7.75 L 6.046875 -7.75 L 6.046875 1.9375 Z M 1.171875 1.328125 L 5.4375 1.328125 L 5.4375 -7.140625 L 1.171875 -7.140625 Z M 1.171875 1.328125 "/>
</symbol>
<symbol overflow="visible" id="glyph0-1">
<path style="stroke:none;" d="M 4.328125 -7.28125 C 3.546875 -7.28125 2.921875 -6.984375 2.453125 -6.390625 C 1.992188 -5.804688 1.765625 -5.007812 1.765625 -4 C 1.765625 -2.988281 1.992188 -2.1875 2.453125 -1.59375 C 2.921875 -1.007812 3.546875 -0.71875 4.328125 -0.71875 C 5.117188 -0.71875 5.742188 -1.007812 6.203125 -1.59375 C 6.660156 -2.1875 6.890625 -2.988281 6.890625 -4 C 6.890625 -5.007812 6.660156 -5.804688 6.203125 -6.390625 C 5.742188 -6.984375 5.117188 -7.28125 4.328125 -7.28125 Z M 4.328125 -8.171875 C 5.453125 -8.171875 6.351562 -7.789062 7.03125 -7.03125 C 7.707031 -6.28125 8.046875 -5.269531 8.046875 -4 C 8.046875 -2.738281 7.707031 -1.726562 7.03125 -0.96875 C 6.351562 -0.21875 5.453125 0.15625 4.328125 0.15625 C 3.203125 0.15625 2.300781 -0.21875 1.625 -0.96875 C 0.957031 -1.71875 0.625 -2.726562 0.625 -4 C 0.625 -5.269531 0.957031 -6.28125 1.625 -7.03125 C 2.300781 -7.789062 3.203125 -8.171875 4.328125 -8.171875 Z M 4.328125 -8.171875 "/>
</symbol>
<symbol overflow="visible" id="glyph0-2">
<path style="stroke:none;" d="M 1.078125 -8.015625 L 2.546875 -8.015625 L 6.09375 -1.3125 L 6.09375 -8.015625 L 7.15625 -8.015625 L 7.15625 0 L 5.6875 0 L 2.125 -6.703125 L 2.125 0 L 1.078125 0 Z M 1.078125 -8.015625 "/>
</symbol>
<symbol overflow="visible" id="glyph0-3">
<path style="stroke:none;" d="M 1.078125 -8.015625 L 2.171875 -8.015625 L 2.171875 -4.734375 L 6.109375 -4.734375 L 6.109375 -8.015625 L 7.1875 -8.015625 L 7.1875 0 L 6.109375 0 L 6.109375 -3.8125 L 2.171875 -3.8125 L 2.171875 0 L 1.078125 0 Z M 1.078125 -8.015625 "/>
</symbol>
</g>
</defs>
<g id="surface38881">
<rect x="0" y="0" width="300" height="300" style="fill:rgb(100%,100%,100%);fill-opacity:1;stroke:none;"/>
<path style="fill:none;stroke-width:1.2;stroke-linecap:butt;stroke-linejoin:miter;stroke:rgb(0%,0%,0%);stroke-opacity:1;stroke-miterlimit:10;" d="M 84.183594 167.746094 L 64.773438 184.789062 "/>
<path style="fill:none;stroke-width:1.2;stroke-linecap:butt;stroke-linejoin:miter;stroke:rgb(0%,0%,100%);stroke-opacity:1;stroke-miterlimit:10;" d="M 79.128906 142.414062 L 81.65625 155.078125 "/>
<path style="fill:none;stroke-width:1.2;stroke-linecap:butt;stroke-linejoin:miter;stroke:rgb(0%,0%,0%);stroke-opacity:1;stroke-miterlimit:10;" d="M 81.65625 155.078125 L 84.183594 167.746094 "/>
<path style="fill:none;stroke-width:1.2;stroke-linecap:butt;stroke-linejoin:miter;stroke:rgb(0%,0%,0%);stroke-opacity:1;stroke-miterlimit:10;" d="M 64.773438 184.789062 L 52.539062 180.644531 "/>
<path style="fill:none;stroke-width:1.2;stroke-linecap:butt;stroke-linejoin:miter;stroke:rgb(100%,0%,0%);stroke-opacity:1;stroke-miterlimit:10;" d="M 52.539062 180.644531 L 40.304688 176.503906 "/>
<path style="fill:none;stroke-width:1.2;stroke-linecap:butt;stroke-linejoin:miter;stroke:rgb(100%,0%,0%);stroke-opacity:1;stroke-miterlimit:10;" d="M 40.304688 176.503906 L 37.777344 163.835938 "/>
<path style="fill:none;stroke-width:1.2;stroke-linecap:butt;stroke-linejoin:miter;stroke:rgb(0%,0%,0%);stroke-opacity:1;stroke-miterlimit:10;" d="M 37.777344 163.835938 L 35.25 151.167969 "/>
<path style=" stroke:none;fill-rule:nonzero;fill:rgb(100%,100%,100%);fill-opacity:1;" d="M 36.304688 170.003906 L 45.304688 170.003906 L 45.304688 183.003906 L 36.304688 183.003906 Z M 36.304688 170.003906 "/>
<g style="fill:rgb(100%,0%,0%);fill-opacity:1;">
  <use xlink:href="#glyph0-1" x="36.304688" y="179.905273"/>
</g>
<path style="fill:none;stroke-width:1.2;stroke-linecap:butt;stroke-linejoin:miter;stroke:rgb(0%,0%,0%);stroke-opacity:1;stroke-miterlimit:10;" d="M 35.25 151.167969 L 54.660156 134.125 "/>
<path style="fill:none;stroke-width:1.2;stroke-linecap:butt;stroke-linejoin:miter;stroke:rgb(0%,0%,0%);stroke-opacity:1;stroke-miterlimit:10;" d="M 54.660156 134.125 L 66.894531 138.269531 "/>
<path style="fill:none;stroke-width:1.2;stroke-linecap:butt;stroke-linejoin:miter;stroke:rgb(0%,0%,100%);stroke-opacity:1;stroke-miterlimit:10;" d="M 66.894531 138.269531 L 79.128906 142.414062 "/>
<path style="fill:none;stroke-width:1.2;stroke-linecap:butt;stroke-linejoin:miter;stroke:rgb(0%,0%,100%);stroke-opacity:1;stroke-miterlimit:10;" d="M 79.128906 142.414062 L 88.832031 133.890625 "/>
<path style="fill:none;stroke-width:1.2;stroke-linecap:butt;stroke-linejoin:miter;stroke:rgb(0%,0%,0%);stroke-opacity:1;stroke-miterlimit:10;" d="M 88.832031 133.890625 L 98.539062 125.367188 "/>
<path style=" stroke:none;fill-rule:nonzero;fill:rgb(100%,100%,100%);fill-opacity:1;" d="M 75.128906 135.914062 L 83.128906 135.914062 L 83.128906 148.914062 L 75.128906 148.914062 Z M 75.128906 135.914062 "/>
<g style="fill:rgb(0%,0%,100%);fill-opacity:1;">
  <use xlink:href="#glyph0-2" x="75.128906" y="145.81543"/>
</g>
<path style="fill:none;stroke-width:1.2;stroke-linecap:butt;stroke-linejoin:miter;stroke:rgb(0%,0%,0%);stroke-opacity:1;stroke-miterlimit:10;" d="M 98.539062 125.367188 L 123.003906 133.65625 "/>
<path style="fill:none;stroke-width:1.2;stroke-linecap:butt;stroke-linejoin:miter;stroke:rgb(0%,0%,0%);stroke-opacity:1;stroke-miterlimit:10;" d="M 123.003906 133.65625 L 132.710938 125.136719 "/>
<path style="fill:none;stroke-width:1.2;stroke-linecap:butt;stroke-linejoin:miter;stroke:rgb(0%,0%,100%);stroke-opacity:1;stroke-miterlimit:10;" d="M 132.710938 125.136719 L 142.417969 116.613281 "/>
<path style="fill:none;stroke-width:1.2;stroke-linecap:butt;stroke-linejoin:miter;stroke:rgb(0%,0%,100%);stroke-opacity:1;stroke-miterlimit:10;" d="M 142.417969 116.613281 L 154.648438 120.757812 "/>
<path style="fill:none;stroke-width:1.2;stroke-linecap:butt;stroke-linejoin:miter;stroke:rgb(0%,0%,0%);stroke-opacity:1;stroke-miterlimit:10;" d="M 154.648438 120.757812 L 166.882812 124.902344 "/>
<path style=" stroke:none;fill-rule:nonzero;fill:rgb(100%,100%,100%);fill-opacity:1;" d="M 134.417969 110.113281 L 151.417969 110.113281 L 151.417969 123.113281 L 134.417969 123.113281 Z M 134.417969 110.113281 "/>
<g style="fill:rgb(0%,0%,100%);fill-opacity:1;">
  <use xlink:href="#glyph0-2" x="134.417969" y="120.014648"/>
  <use xlink:href="#glyph0-3" x="142.401367" y="120.014648"/>
</g>
<path style="fill:none;stroke-width:1.2;stroke-linecap:butt;stroke-linejoin:miter;stroke:rgb(0%,0%,0%);stroke-opacity:1;stroke-miterlimit:10;" d="M 166.882812 124.902344 L 169.410156 137.566406 "/>
<path style="fill:none;stroke-width:1.2;stroke-linecap:butt;stroke-linejoin:miter;stroke:rgb(0%,0%,100%);stroke-opacity:1;stroke-miterlimit:10;" d="M 169.410156 137.566406 L 171.9375 150.234375 "/>
<path style="fill:none;stroke-width:1.2;stroke-linecap:butt;stroke-linejoin:miter;stroke:rgb(0%,0%,0%);stroke-opacity:1;stroke-miterlimit:10;" d="M 173.351562 126.246094 L 175.371094 136.378906 "/>
<path style="fill:none;stroke-width:1.2;stroke-linecap:butt;stroke-linejoin:miter;stroke:rgb(0%,0%,100%);stroke-opacity:1;stroke-miterlimit:10;" d="M 175.371094 136.378906 L 177.394531 146.511719 "/>
<path style="fill:none;stroke-width:1.2;stroke-linecap:butt;stroke-linejoin:miter;stroke:rgb(0%,0%,0%);stroke-opacity:1;stroke-miterlimit:10;" d="M 186.292969 107.855469 L 166.882812 124.902344 "/>
<path style="fill:none;stroke-width:1.2;stroke-linecap:butt;stroke-linejoin:miter;stroke:rgb(0%,0%,100%);stroke-opacity:1;stroke-miterlimit:10;" d="M 171.9375 150.234375 L 184.171875 154.378906 "/>
<path style="fill:none;stroke-width:1.2;stroke-linecap:butt;stroke-linejoin:miter;stroke:rgb(0%,0%,0%);stroke-opacity:1;stroke-miterlimit:10;" d="M 184.171875 154.378906 L 196.40625 158.523438 "/>
<path style=" stroke:none;fill-rule:nonzero;fill:rgb(100%,100%,100%);fill-opacity:1;" d="M 167.9375 143.734375 L 175.9375 143.734375 L 175.9375 156.734375 L 167.9375 156.734375 Z M 167.9375 143.734375 "/>
<g style="fill:rgb(0%,0%,100%);fill-opacity:1;">
  <use xlink:href="#glyph0-2" x="167.9375" y="153.635742"/>
</g>
<path style="fill:none;stroke-width:1.2;stroke-linecap:butt;stroke-linejoin:miter;stroke:rgb(0%,0%,0%);stroke-opacity:1;stroke-miterlimit:10;" d="M 196.40625 158.523438 L 206.109375 150 "/>
<path style="fill:none;stroke-width:1.2;stroke-linecap:butt;stroke-linejoin:miter;stroke:rgb(0%,0%,100%);stroke-opacity:1;stroke-miterlimit:10;" d="M 206.109375 150 L 215.816406 141.476562 "/>
<path style="fill:none;stroke-width:1.2;stroke-linecap:butt;stroke-linejoin:miter;stroke:rgb(0%,0%,0%);stroke-opacity:1;stroke-miterlimit:10;" d="M 194.335938 152.25 L 202.101562 145.433594 "/>
<path style="fill:none;stroke-width:1.2;stroke-linecap:butt;stroke-linejoin:miter;stroke:rgb(0%,0%,100%);stroke-opacity:1;stroke-miterlimit:10;" d="M 202.101562 145.433594 L 209.863281 138.613281 "/>
<path style="fill:none;stroke-width:1.2;stroke-linecap:butt;stroke-linejoin:miter;stroke:rgb(0%,0%,0%);stroke-opacity:1;stroke-miterlimit:10;" d="M 196.40625 158.523438 L 201.460938 183.855469 "/>
<path style="fill:none;stroke-width:1.2;stroke-linecap:butt;stroke-linejoin:miter;stroke:rgb(0%,0%,100%);stroke-opacity:1;stroke-miterlimit:10;" d="M 215.816406 141.476562 L 213.289062 128.8125 "/>
<path style="fill:none;stroke-width:1.2;stroke-linecap:butt;stroke-linejoin:miter;stroke:rgb(0%,0%,0%);stroke-opacity:1;stroke-miterlimit:10;" d="M 213.289062 128.8125 L 210.761719 116.144531 "/>
<path style=" stroke:none;fill-rule:nonzero;fill:rgb(100%,100%,100%);fill-opacity:1;" d="M 211.816406 134.976562 L 219.816406 134.976562 L 219.816406 147.976562 L 211.816406 147.976562 Z M 211.816406 134.976562 "/>
<g style="fill:rgb(0%,0%,100%);fill-opacity:1;">
  <use xlink:href="#glyph0-2" x="211.816406" y="144.87793"/>
</g>
<path style="fill:none;stroke-width:1.2;stroke-linecap:butt;stroke-linejoin:miter;stroke:rgb(0%,0%,0%);stroke-opacity:1;stroke-miterlimit:10;" d="M 210.761719 116.144531 L 230.171875 99.101562 "/>
<path style="fill:none;stroke-width:1.2;stroke-linecap:butt;stroke-linejoin:miter;stroke:rgb(0%,0%,0%);stroke-opacity:1;stroke-miterlimit:10;" d="M 208.691406 109.875 L 224.222656 96.238281 "/>
<path style="fill:none;stroke-width:1.2;stroke-linecap:butt;stroke-linejoin:miter;stroke:rgb(0%,0%,0%);stroke-opacity:1;stroke-miterlimit:10;" d="M 186.292969 107.855469 L 210.761719 116.144531 "/>
<path style="fill:none;stroke-width:1.2;stroke-linecap:butt;stroke-linejoin:miter;stroke:rgb(0%,0%,0%);stroke-opacity:1;stroke-miterlimit:10;" d="M 230.171875 99.101562 L 225.117188 73.765625 "/>
<path style="fill:none;stroke-width:1.2;stroke-linecap:butt;stroke-linejoin:miter;stroke:rgb(0%,0%,0%);stroke-opacity:1;stroke-miterlimit:10;" d="M 225.117188 73.765625 L 200.652344 65.480469 "/>
<path style="fill:none;stroke-width:1.2;stroke-linecap:butt;stroke-linejoin:miter;stroke:rgb(0%,0%,0%);stroke-opacity:1;stroke-miterlimit:10;" d="M 220.71875 78.695312 L 201.148438 72.066406 "/>
<path style="fill:none;stroke-width:1.2;stroke-linecap:butt;stroke-linejoin:miter;stroke:rgb(0%,0%,0%);stroke-opacity:1;stroke-miterlimit:10;" d="M 200.652344 65.480469 L 181.238281 82.523438 "/>
<path style="fill:none;stroke-width:1.2;stroke-linecap:butt;stroke-linejoin:miter;stroke:rgb(0%,0%,0%);stroke-opacity:1;stroke-miterlimit:10;" d="M 181.238281 82.523438 L 186.292969 107.855469 "/>
<path style="fill:none;stroke-width:1.2;stroke-linecap:butt;stroke-linejoin:miter;stroke:rgb(0%,0%,0%);stroke-opacity:1;stroke-miterlimit:10;" d="M 187.707031 83.867188 L 191.75 104.132812 "/>
<path style="fill:none;stroke-width:1.2;stroke-linecap:butt;stroke-linejoin:miter;stroke:rgb(0%,0%,0%);stroke-opacity:1;stroke-miterlimit:10;" d="M 201.460938 183.855469 L 182.050781 200.898438 "/>
<path style="fill:none;stroke-width:1.2;stroke-linecap:butt;stroke-linejoin:miter;stroke:rgb(0%,0%,0%);stroke-opacity:1;stroke-miterlimit:10;" d="M 203.53125 190.125 L 188 203.761719 "/>
<path style="fill:none;stroke-width:1.2;stroke-linecap:butt;stroke-linejoin:miter;stroke:rgb(0%,0%,0%);stroke-opacity:1;stroke-miterlimit:10;" d="M 225.925781 192.144531 L 201.460938 183.855469 "/>
<path style="fill:none;stroke-width:1.2;stroke-linecap:butt;stroke-linejoin:miter;stroke:rgb(0%,0%,0%);stroke-opacity:1;stroke-miterlimit:10;" d="M 182.050781 200.898438 L 187.105469 226.234375 "/>
<path style="fill:none;stroke-width:1.2;stroke-linecap:butt;stroke-linejoin:miter;stroke:rgb(0%,0%,0%);stroke-opacity:1;stroke-miterlimit:10;" d="M 187.105469 226.234375 L 211.570312 234.519531 "/>
<path style="fill:none;stroke-width:1.2;stroke-linecap:butt;stroke-linejoin:miter;stroke:rgb(0%,0%,0%);stroke-opacity:1;stroke-miterlimit:10;" d="M 191.5 221.304688 L 211.074219 227.933594 "/>
<path style="fill:none;stroke-width:1.2;stroke-linecap:butt;stroke-linejoin:miter;stroke:rgb(0%,0%,0%);stroke-opacity:1;stroke-miterlimit:10;" d="M 211.570312 234.519531 L 230.984375 217.476562 "/>
<path style="fill:none;stroke-width:1.2;stroke-linecap:butt;stroke-linejoin:miter;stroke:rgb(0%,0%,0%);stroke-opacity:1;stroke-miterlimit:10;" d="M 230.984375 217.476562 L 225.925781 192.144531 "/>
<path style="fill:none;stroke-width:1.2;stroke-linecap:butt;stroke-linejoin:miter;stroke:rgb(0%,0%,0%);stroke-opacity:1;stroke-miterlimit:10;" d="M 224.515625 216.132812 L 220.472656 195.867188 "/>
<path style="fill:none;stroke-width:1.2;stroke-linecap:butt;stroke-linejoin:miter;stroke:rgb(0%,0%,0%);stroke-opacity:1;stroke-miterlimit:10;" d="M 225.925781 192.144531 L 245.339844 175.097656 "/>
<path style="fill:none;stroke-width:1.2;stroke-linecap:butt;stroke-linejoin:miter;stroke:rgb(0%,0%,0%);stroke-opacity:1;stroke-miterlimit:10;" d="M 245.339844 175.097656 L 255.042969 166.578125 "/>
<path style="fill:none;stroke-width:1.2;stroke-linecap:butt;stroke-linejoin:miter;stroke:rgb(0%,0%,100%);stroke-opacity:1;stroke-miterlimit:10;" d="M 255.042969 166.578125 L 264.75 158.054688 "/>
<path style="fill:none;stroke-width:1.2;stroke-linecap:butt;stroke-linejoin:miter;stroke:rgb(0%,0%,0%);stroke-opacity:1;stroke-miterlimit:10;" d="M 251.289062 177.960938 L 259.054688 171.144531 "/>
<path style="fill:none;stroke-width:1.2;stroke-linecap:butt;stroke-linejoin:miter;stroke:rgb(0%,0%,100%);stroke-opacity:1;stroke-miterlimit:10;" d="M 259.054688 171.144531 L 266.820312 164.328125 "/>
<path style="fill:none;stroke-width:1.2;stroke-linecap:butt;stroke-linejoin:miter;stroke:rgb(0%,0%,0%);stroke-opacity:1;stroke-miterlimit:10;" d="M 243.269531 168.828125 L 251.035156 162.007812 "/>
<path style="fill:none;stroke-width:1.2;stroke-linecap:butt;stroke-linejoin:miter;stroke:rgb(0%,0%,100%);stroke-opacity:1;stroke-miterlimit:10;" d="M 251.035156 162.007812 L 258.796875 155.191406 "/>
<path style=" stroke:none;fill-rule:nonzero;fill:rgb(100%,100%,100%);fill-opacity:1;" d="M 260.75 151.554688 L 268.75 151.554688 L 268.75 164.554688 L 260.75 164.554688 Z M 260.75 151.554688 "/>
<g style="fill:rgb(0%,0%,100%);fill-opacity:1;">
  <use xlink:href="#glyph0-2" x="260.75" y="161.456055"/>
</g>
</g>
</svg>

<svg xmlns="http://www.w3.org/2000/svg" xmlns:xlink="http://www.w3.org/1999/xlink" width="300pt" height="300pt" viewBox="0 0 300 300"><defs><symbol overflow="visible"><path d="M.547 1.938V-7.75h5.5v9.688zm.625-.61h4.266v-8.47H1.171zm0 0"/></symbol><symbol overflow="visible" id="a"><path d="M4.328-7.28c-.78 0-1.406.296-1.875.89-.46.585-.687 1.382-.687 2.39 0 1.012.226 1.813.687 2.406.47.586 1.094.875 1.875.875.79 0 1.414-.288 1.875-.874.457-.593.688-1.394.688-2.406 0-1.008-.23-1.805-.687-2.39-.46-.594-1.086-.89-1.875-.89zm0-.892c1.125 0 2.024.383 2.703 1.14C7.708-6.28 8.048-5.27 8.048-4c0 1.262-.34 2.273-1.016 3.03C6.353-.22 5.454.157 4.33.157S2.3-.22 1.625-.97c-.668-.75-1-1.757-1-3.03 0-1.27.332-2.28 1-3.03.676-.76 1.578-1.142 2.703-1.142zm0 0"/></symbol><symbol overflow="visible" id="b"><path d="M1.078-8.016h1.47l3.546 6.704v-6.704h1.062V0H5.688L2.124-6.703V0H1.078zm0 0"/></symbol><symbol overflow="visible" id="c"><path d="M1.078-8.016h1.094v3.282H6.11v-3.282h1.077V0H6.11v-3.813H2.17V0H1.078zm0 0"/></symbol></defs><g><path fill="#fff" d="M0 0h300v300H0z"/><path d="M84.184 167.746l-19.41 17.043" stroke-width="1.2" stroke="#000" stroke-miterlimit="10" fill="none"/><path d="M79.13 142.414l2.526 12.664" stroke-width="1.2" stroke="#00f" stroke-miterlimit="10" fill="none"/><path d="M81.656 155.078l2.528 12.668M64.773 184.79l-12.234-4.145" stroke-width="1.2" stroke="#000" stroke-miterlimit="10" fill="none"/><path d="M52.54 180.645l-12.235-4.14M40.305 176.504l-2.528-12.668" stroke-width="1.2" stroke="#f00" stroke-miterlimit="10" fill="none"/><path d="M37.777 163.836l-2.527-12.668" stroke-width="1.2" stroke="#000" stroke-miterlimit="10" fill="none"/><path d="M36.305 170.004h9v13h-9zm0 0" fill="#fff"/><use xlink:href="#a" x="36.305" y="179.905" fill="#f00"/><path d="M35.25 151.168l19.41-17.043M54.66 134.125l12.235 4.145" stroke-width="1.2" stroke="#000" stroke-miterlimit="10" fill="none"/><path d="M66.895 138.27l12.234 4.144M79.13 142.414l9.702-8.523" stroke-width="1.2" stroke="#00f" stroke-miterlimit="10" fill="none"/><path d="M88.832 133.89l9.707-8.523" stroke-width="1.2" stroke="#000" stroke-miterlimit="10" fill="none"/><path d="M75.13 135.914h8v13h-8zm0 0" fill="#fff"/><use xlink:href="#b" x="75.129" y="145.815" fill="#00f"/><path d="M98.54 125.367l24.464 8.29M123.004 133.656l9.707-8.52" stroke-width="1.2" stroke="#000" stroke-miterlimit="10" fill="none"/><path d="M132.71 125.137l9.708-8.524M142.418 116.613l12.23 4.145" stroke-width="1.2" stroke="#00f" stroke-miterlimit="10" fill="none"/><path d="M154.648 120.758l12.235 4.144" stroke-width="1.2" stroke="#000" stroke-miterlimit="10" fill="none"/><path d="M134.418 110.113h17v13h-17zm0 0" fill="#fff"/><g fill="#00f"><use xlink:href="#b" x="134.418" y="120.015"/><use xlink:href="#c" x="142.401" y="120.015"/></g><path d="M166.883 124.902l2.527 12.664" stroke-width="1.2" stroke="#000" stroke-miterlimit="10" fill="none"/><path d="M169.41 137.566l2.528 12.668" stroke-width="1.2" stroke="#00f" stroke-miterlimit="10" fill="none"/><path d="M173.352 126.246l2.02 10.133" stroke-width="1.2" stroke="#000" stroke-miterlimit="10" fill="none"/><path d="M175.37 136.38l2.025 10.132" stroke-width="1.2" stroke="#00f" stroke-miterlimit="10" fill="none"/><path d="M186.293 107.855l-19.41 17.047" stroke-width="1.2" stroke="#000" stroke-miterlimit="10" fill="none"/><path d="M171.938 150.234l12.234 4.145" stroke-width="1.2" stroke="#00f" stroke-miterlimit="10" fill="none"/><path d="M184.172 154.38l12.234 4.143" stroke-width="1.2" stroke="#000" stroke-miterlimit="10" fill="none"/><path d="M167.938 143.734h8v13h-8zm0 0" fill="#fff"/><use xlink:href="#b" x="167.938" y="153.636" fill="#00f"/><path d="M196.406 158.523L206.11 150" stroke-width="1.2" stroke="#000" stroke-miterlimit="10" fill="none"/><path d="M206.11 150l9.706-8.523" stroke-width="1.2" stroke="#00f" stroke-miterlimit="10" fill="none"/><path d="M194.336 152.25l7.766-6.816" stroke-width="1.2" stroke="#000" stroke-miterlimit="10" fill="none"/><path d="M202.102 145.434l7.76-6.82" stroke-width="1.2" stroke="#00f" stroke-miterlimit="10" fill="none"/><path d="M196.406 158.523l5.055 25.332" stroke-width="1.2" stroke="#000" stroke-miterlimit="10" fill="none"/><path d="M215.816 141.477l-2.527-12.665" stroke-width="1.2" stroke="#00f" stroke-miterlimit="10" fill="none"/><path d="M213.29 128.813l-2.528-12.668" stroke-width="1.2" stroke="#000" stroke-miterlimit="10" fill="none"/><path d="M211.816 134.977h8v13h-8zm0 0" fill="#fff"/><use xlink:href="#b" x="211.816" y="144.878" fill="#00f"/><path d="M210.762 116.145l19.41-17.043M208.69 109.875l15.533-13.637M186.293 107.855l24.47 8.29M230.172 99.102l-5.055-25.336M225.117 73.766l-24.465-8.286M220.72 78.695l-19.572-6.63M200.652 65.48l-19.414 17.043M181.238 82.523l5.055 25.332M187.707 83.867l4.043 20.266M201.46 183.855l-19.41 17.043M203.53 190.125L188 203.762M225.926 192.145l-24.465-8.29M182.05 200.898l5.055 25.336M187.105 226.234l24.465 8.286M191.5 221.305l19.574 6.63M211.57 234.52l19.414-17.043M230.984 217.477l-5.058-25.332M224.516 216.133l-4.043-20.266M225.926 192.145l19.414-17.047M245.34 175.098l9.703-8.52" stroke-width="1.2" stroke="#000" stroke-miterlimit="10" fill="none"/><path d="M255.043 166.578l9.707-8.523" stroke-width="1.2" stroke="#00f" stroke-miterlimit="10" fill="none"/><path d="M251.29 177.96l7.765-6.815" stroke-width="1.2" stroke="#000" stroke-miterlimit="10" fill="none"/><path d="M259.055 171.145l7.765-6.817" stroke-width="1.2" stroke="#00f" stroke-miterlimit="10" fill="none"/><path d="M243.27 168.828l7.765-6.82" stroke-width="1.2" stroke="#000" stroke-miterlimit="10" fill="none"/><path d="M251.035 162.008l7.762-6.817" stroke-width="1.2" stroke="#00f" stroke-miterlimit="10" fill="none"/><path d="M260.75 151.555h8v13h-8zm0 0" fill="#fff"/><use xlink:href="#b" x="260.75" y="161.456" fill="#00f"/></g></svg>
